X:1
T:Big John McNeil
C:Peter Milne
L:1/8
M:4/4
I:linebreak $
K:A
V:1 treble
V:1
 "A"A,2 CE FECE | AECE FECB, | A,2 CE FECE | "D"FAGF "E"EDCB, |$
 "A"A,2 CE FECE | AECE FECB, | A,CB,D "D"CEDF |  "E"EGBd "A"cA A2 :|$
 |:"A"eAfA eAcd | eAfA e2 cd | eAfA eAce | "Bm"dece "E"B2 cd | "A"eAfA eAcd |$
 eAfA e2 (3efg |1 "D"agfe "Bm"fedc | "E"defg "A"a2 cd :|2 "D"agfe "Bm"fedc || BAGF EDCB, :|
